app/assets/v2/images/presskit/GitcoinLogoType.svg

<?xml version="1.0" encoding="UTF-8"?>
<svg width="290px" height="181px" viewBox="0 0 290 181" version="1.1" xmlns="http://www.w3.org/2000/svg" xmlns:xlink="http://www.w3.org/1999/xlink">
    <!-- Generator: Sketch 49 (51002) - http://www.bohemiancoding.com/sketch -->
    <title>GitcoinLogo</title>
    <desc>Created with Sketch.</desc>
    <defs>
        <polygon id="path-1" points="0 212 290 212 290 0 0 0"></polygon>
    </defs>
    <g id="Module-02-Templates" stroke="none" stroke-width="1" fill="none" fill-rule="evenodd">
        <g id="Gitcoin-Press-kit" transform="translate(-1002.000000, -1278.000000)">
            <g id="Logo" transform="translate(0.000000, 1051.000000)">
                <g id="card-copy-2" transform="translate(943.000000, 149.000000)">
                    <g id="GitcoinLogo" transform="translate(59.000000, 78.000000)">
                        <g id="Group">
                            <path d="M21.357038,158.733843 L37,158.733843 L37,159.974851 C37,162.796799 36.6649167,165.295024 35.99475,167.468213 C35.340918,169.47976 34.237218,171.361204 32.6845327,173.112984 C29.1699102,177.037953 24.6994833,179 19.2723693,179 C13.9763749,179 9.43972604,177.102786 5.66463029,173.307481 C1.88776862,169.49553 0,164.921802 0,159.585421 C0,154.135584 1.92043814,149.512793 5.76263886,145.71705 C9.60307366,141.905976 14.2783472,140 19.7875765,140 C22.7459342,140 25.5082748,140.597945 28.0745982,141.792081 C30.5270198,142.987532 32.9379422,144.928552 35.30869,147.615579 L31.2382441,151.483601 C28.1324321,147.379906 24.3476238,145.32762 19.8855851,145.32762 C15.8804782,145.32762 12.5212567,146.698731 9.80792039,149.440076 C7.09414263,152.13236 5.7374745,155.505818 5.7374745,159.56089 C5.7374745,163.745625 7.24910213,167.192677 10.2741233,169.901168 C13.1013614,172.415163 16.1665573,173.671942 19.4688279,173.671942 C22.2801728,173.671942 24.8054386,172.733629 27.0455082,170.857003 C29.284695,168.964169 30.5354079,166.699427 30.7967641,164.062339 L21.357038,164.062339 L21.357038,158.733843 Z" id="Fill-1" fill="#15003E"></path>
                            <mask id="mask-2" fill="white">
                                <use xlink:href="#path-1"></use>
                            </mask>
                            <g id="Clip-4"></g>
                            <polygon id="Fill-3" fill="#15003E" mask="url(#mask-2)" points="58 179 64 179 64 141 58 141"></polygon>
                            <polygon id="Fill-5" fill="#15003E" mask="url(#mask-2)" points="96.9811342 146.390209 96.9811342 179 91.0445553 179 91.0445553 146.390209 82 146.390209 82 141 106 141 106 146.390209"></polygon>
                            <path d="M150,142.738657 L150,149.445912 C146.683223,146.702872 143.251142,145.331352 139.7042,145.331352 C135.796266,145.331352 132.503437,146.71909 129.82793,149.494566 C127.134241,152.253386 125.788283,155.629368 125.788283,159.621635 C125.788283,163.565687 127.134241,166.892577 129.82793,169.603181 C132.519846,172.313346 135.820657,173.66821 139.728591,173.66821 C141.74908,173.66821 143.464455,173.344288 144.876935,172.694251 C145.664996,172.370329 146.48144,171.932442 147.327598,171.38059 C148.172868,170.828738 149.063817,170.162484 150,169.38358 L150,176.236797 C146.716041,178.079078 143.267551,179 139.654974,179 C134.219699,179 129.580913,177.125721 125.73817,173.375847 C121.912723,169.595291 120,165.034515 120,159.695274 C120,154.907446 121.600514,150.639033 124.802874,146.88916 C128.744068,142.296825 133.842299,140 140.098452,140 C143.514125,140 146.814493,140.913032 150,142.738657" id="Fill-6" fill="#15003E" mask="url(#mask-2)"></path>
                            <path d="M176.824567,152.402411 C176.824567,156.556405 178.244899,159.971356 181.087348,162.649018 C183.911949,165.326241 187.175188,166.664852 190.876173,166.664852 C194.8913,166.664852 198.278143,165.301679 201.037594,162.575771 C203.7966,159.817845 205.176772,156.459036 205.176772,152.499781 C205.176772,148.492279 203.81311,145.13347 201.087125,142.423352 C198.377205,139.697444 195.023382,138.334271 191.024765,138.334271 C187.043105,138.334271 183.680358,139.697444 180.937863,142.423352 C178.195368,145.117242 176.824567,148.443595 176.824567,152.402411 M171,152.341007 C171,147.047526 172.974097,142.499668 176.923629,138.699626 C180.855312,134.899583 185.580828,133 191.099731,133 C196.551701,133 201.22724,134.91625 205.126348,138.748749 C209.04286,142.581248 211,147.185247 211,152.560746 C211,157.968263 209.033935,162.556473 205.101806,166.324059 C201.153167,170.108312 196.386151,172 190.802099,172 C185.861503,172 181.425587,170.319279 177.493457,166.956961 C173.164634,163.238937 171,158.366513 171,152.341007" id="Fill-7" fill="#0FCE7C" mask="url(#mask-2)"></path>
                            <polygon id="Fill-8" fill="#15003E" mask="url(#mask-2)" points="228 179 234 179 234 141 228 141"></polygon>
                            <polygon id="Fill-9" fill="#15003E" mask="url(#mask-2)" points="257 178.680874 257 138 284.342532 167.060813 284.342532 140.590083 290 140.590083 290 181 262.657905 152.012479 262.657905 178.680874"></polygon>
                            <polygon id="Fill-25" fill="#FFFFFF" mask="url(#mask-2)" points="160.374249 49 167 61.1422715 161.972406 81 150 71.9012463 152.098115 57.3359971"></polygon>
                            <path d="M143.5,45 C142.119673,45 141,43.9122415 141,42.571258 L141,23.428742 C141,22.0872964 142.119673,21 143.5,21 C144.880327,21 146,22.0872964 146,23.428742 L146,42.571258 C146,43.9122415 144.880327,45 143.5,45" id="Fill-26" fill="#15003E" mask="url(#mask-2)"></path>
                            <path d="M139,41 L146,41" id="Fill-27" fill="#FFFFFF" mask="url(#mask-2)"></path>
                            <path d="M146.642873,44 L139.357127,44 C138.055684,44 137,42.8803272 137,41.5 C137,40.1196728 138.055684,39 139.357127,39 L146.642873,39 C147.944316,39 149,40.1196728 149,41.5 C149,42.8803272 147.944316,44 146.642873,44" id="Fill-28" fill="#15003E" mask="url(#mask-2)"></path>
                            <path d="M159.068854,47.8047263 L166.798737,40.5426647 C160.883728,34.6466452 152.712098,31 143.686069,31 C125.63401,31 111,45.5870271 111,63.581129 C111,81.5752309 125.63401,96.1622579 143.686069,96.1622579 C150.414751,96.1622579 156.332446,98.610605 161.530458,95.1361649 L168,96.0284197 L167.814708,85.5600406 L149.289574,70.9373234 L153.272449,52.2396786 L159.068854,47.8047263" id="Fill-29" fill="#FFFFFF" mask="url(#mask-2)"></path>
                            <path d="M144.549202,99 C124.947252,99 109,83.0747208 109,63.5002213 C109,43.9257218 124.947252,28 144.549202,28 C154.04477,28 162.972074,31.6926002 169.68617,38.3983304 L172,40.7085295 L161.963652,50.1556014 L157.605053,45.5378592 L162.747784,40.6979058 C157.595745,36.58036 151.244238,34.3454117 144.549202,34.3454117 C128.450798,34.3454117 115.354167,47.423998 115.354167,63.5002213 C115.354167,79.576002 128.450798,92.6545883 144.549202,92.6545883" id="Fill-30" fill="#15003E" mask="url(#mask-2)"></path>
                            <path d="M162.166363,81 L157.711562,76.6131797 C160.991656,73.1719844 162.797633,68.6382623 162.797633,63.8463626 C162.797633,58.8446662 160.853633,54.1701999 157.323454,50.6845822 L155,48.390452 L157.491764,46 L159.614457,48.2866532 L161.644559,46.1622956 C166.387953,50.8455584 169,57.1258278 169,63.8463626 C169,70.2849693 166.572705,76.3765535 162.166363,81" id="Fill-31" fill="#0FCE7C" mask="url(#mask-2)"></path>
                            <path d="M137,63 C137,59.1338468 140.133752,56 143.999788,56 C147.865824,56 151,59.1338468 151,63 C151,66.8657287 147.865824,70 143.999788,70 C140.133752,70 137,66.8657287 137,63" id="Fill-32" fill="#EFF4EE" mask="url(#mask-2)"></path>
                            <path d="M143.5,59.3626276 C141.218202,59.3626276 139.362493,61.2188194 139.362493,63.5002219 C139.362493,65.7811806 141.218202,67.6373724 143.5,67.6373724 C145.781354,67.6373724 147.637507,65.7811806 147.637507,63.5002219 C147.637507,61.2188194 145.781354,59.3626276 143.5,59.3626276 M143.5,74 C137.710509,74 133,69.2898358 133,63.5002219 C133,57.7106081 137.710509,53 143.5,53 C149.289491,53 154,57.7106081 154,63.5002219 C154,69.2898358 149.289491,74 143.5,74" id="Fill-33" fill="#15003E" mask="url(#mask-2)"></path>
                            <path d="M168,41 L149,59" id="Fill-34" fill="#15003E" mask="url(#mask-2)"></path>
                            <polygon id="Fill-35" fill="#15003E" mask="url(#mask-2)" points="151.352742 60 147 55.2759718 165.647258 38 170 42.7235796"></polygon>
                            <polyline id="Fill-36" fill="#FFFFFF" mask="url(#mask-2)" points="148 70 161.637185 80.3033903 169 85.8667641 169 100 154.208818 99.284931"></polyline>
                            <polygon id="Fill-37" fill="#15003E" mask="url(#mask-2)" points="171 99 143 99 143 92.7751597 164.566118 92.7751597 164.566118 87.1200829 145.141934 72.9737056 149.01151 68 171 84.0137426"></polygon>
                            <polygon id="Fill-38" fill="#25E899" mask="url(#mask-2)" points="178 24.5 175.5 27 173 24.5 175.5 22"></polygon>
                            <polygon id="Fill-39" fill="#25E899" mask="url(#mask-2)" points="166 12.5 164.499727 14 163 12.5 164.499727 11"></polygon>
                            <path d="M178,2 C178,0.895435885 177.104564,0 176,0 C174.895436,0 174,0.895435885 174,2 C174,3.10456411 174.895436,4 176,4 C177.104564,4 178,3.10456411 178,2" id="Fill-40" fill="#25E899" mask="url(#mask-2)"></path>
                            <path d="M132.5,51 C131.119673,51 130,49.9365579 130,48.6255515 L130,23.3749002 C130,22.0634421 131.119673,21 132.5,21 C133.880327,21 135,22.0634421 135,23.3749002 L135,48.6255515 C135,49.9365579 133.880327,51 132.5,51" id="Fill-41" fill="#15003E" mask="url(#mask-2)"></path>
                        </g>
                    </g>
                </g>
            </g>
        </g>
    </g>
</svg>

<svg width="290" height="181" xmlns="http://www.w3.org/2000/svg" xmlns:xlink="http://www.w3.org/1999/xlink"><defs><path id="a" d="M0 212h290V0H0z"/></defs><g fill="none" fill-rule="evenodd"><path d="M21.357 158.734H37v1.24c0 2.823-.335 5.321-1.005 7.494-.654 2.012-1.758 3.893-3.31 5.645C29.17 177.038 24.699 179 19.272 179c-5.296 0-9.832-1.897-13.607-5.693C1.888 169.496 0 164.922 0 159.585c0-5.45 1.92-10.072 5.763-13.868 3.84-3.811 8.515-5.717 14.025-5.717 2.958 0 5.72.598 8.287 1.792 2.452 1.196 4.863 3.137 7.234 5.824l-4.07 3.868c-3.107-4.104-6.891-6.156-11.353-6.156-4.006 0-7.365 1.37-10.078 4.112-2.714 2.692-4.07 6.066-4.07 10.12 0 4.186 1.511 7.633 4.536 10.341 2.827 2.514 5.893 3.77 9.195 3.77 2.811 0 5.336-.937 7.577-2.814 2.239-1.893 3.49-4.158 3.75-6.795h-9.439v-5.328z" fill="#15003E"/><mask id="b" fill="#fff"><use xlink:href="#a"/></mask><path fill="#15003E" mask="url(#b)" d="M58 179h6v-38h-6zM96.981 146.39V179h-5.936v-32.61H82V141h24v5.39zM150 142.739v6.707c-3.317-2.743-6.749-4.115-10.296-4.115-3.908 0-7.2 1.388-9.876 4.164-2.694 2.758-4.04 6.134-4.04 10.127 0 3.944 1.346 7.27 4.04 9.981 2.692 2.71 5.993 4.065 9.9 4.065 2.021 0 3.736-.324 5.149-.974a14.864 14.864 0 0 0 2.45-1.313 29.067 29.067 0 0 0 2.673-1.997v6.853c-3.284 1.842-6.732 2.763-10.345 2.763-5.435 0-10.074-1.874-13.917-5.624-3.825-3.78-5.738-8.341-5.738-13.68 0-4.789 1.6-9.057 4.803-12.807 3.941-4.592 9.04-6.889 15.295-6.889 3.416 0 6.716.913 9.902 2.739"/><path d="M176.825 152.402c0 4.154 1.42 7.57 4.262 10.247 2.825 2.677 6.088 4.016 9.79 4.016 4.014 0 7.401-1.363 10.16-4.09 2.76-2.757 4.14-6.116 4.14-10.075 0-4.008-1.364-7.367-4.09-10.077-2.71-2.726-6.064-4.089-10.062-4.089-3.982 0-7.345 1.363-10.087 4.09-2.743 2.693-4.113 6.02-4.113 9.978m-5.825-.061c0-5.293 1.974-9.841 5.924-13.641 3.931-3.8 8.657-5.7 14.176-5.7 5.452 0 10.127 1.916 14.026 5.749 3.917 3.832 5.874 8.436 5.874 13.812 0 5.407-1.966 9.995-5.898 13.763-3.949 3.784-8.716 5.676-14.3 5.676-4.94 0-9.376-1.68-13.309-5.043-4.328-3.718-6.493-8.59-6.493-14.616" fill="#0FCE7C" mask="url(#b)"/><path fill="#15003E" mask="url(#b)" d="M228 179h6v-38h-6zM257 178.68V138l27.343 29.06v-26.47H290V181l-27.342-28.988v26.669z"/><path fill="#FFF" mask="url(#b)" d="M160.374 49L167 61.142 161.972 81 150 71.901l2.098-14.565z"/><path d="M143.5 45c-1.38 0-2.5-1.088-2.5-2.429V23.43c0-1.342 1.12-2.429 2.5-2.429s2.5 1.087 2.5 2.429V42.57c0 1.341-1.12 2.429-2.5 2.429" fill="#15003E" mask="url(#b)"/><path d="M139 41h7" fill="#FFF" mask="url(#b)"/><path d="M146.643 44h-7.286c-1.301 0-2.357-1.12-2.357-2.5s1.056-2.5 2.357-2.5h7.286c1.301 0 2.357 1.12 2.357 2.5s-1.056 2.5-2.357 2.5" fill="#15003E" mask="url(#b)"/><path d="M159.069 47.805l7.73-7.262A32.637 32.637 0 0 0 143.686 31C125.634 31 111 45.587 111 63.581c0 17.994 14.634 32.581 32.686 32.581 6.729 0 12.646 2.449 17.844-1.026l6.47.892-.185-10.468-18.525-14.623 3.982-18.697 5.797-4.435" fill="#FFF" mask="url(#b)"/><path d="M144.55 99C124.946 99 109 83.075 109 63.5c0-19.574 15.947-35.5 35.55-35.5 9.495 0 18.422 3.693 25.136 10.398l2.314 2.31-10.036 9.448-4.359-4.618 5.143-4.84c-5.152-4.118-11.504-6.353-18.199-6.353-16.098 0-29.195 13.079-29.195 29.155s13.097 29.155 29.195 29.155" fill="#15003E" mask="url(#b)"/><path d="M162.166 81l-4.454-4.387c3.28-3.441 5.086-7.975 5.086-12.767 0-5.001-1.944-9.676-5.475-13.161L155 48.39l2.492-2.39 2.122 2.287 2.03-2.125C166.389 50.846 169 57.126 169 63.846c0 6.439-2.427 12.53-6.834 17.154" fill="#0FCE7C" mask="url(#b)"/><path d="M137 63a7 7 0 1 1 14 0 7 7 0 0 1-14 0" fill="#EFF4EE" mask="url(#b)"/><path d="M143.5 59.363a4.142 4.142 0 0 0-4.138 4.137 4.142 4.142 0 0 0 4.138 4.137 4.142 4.142 0 0 0 4.138-4.137 4.142 4.142 0 0 0-4.138-4.137m0 14.637c-5.79 0-10.5-4.71-10.5-10.5S137.71 53 143.5 53 154 57.71 154 63.5 149.29 74 143.5 74M168 41l-19 18" fill="#15003E" mask="url(#b)"/><path fill="#15003E" mask="url(#b)" d="M151.353 60L147 55.276 165.647 38 170 42.724z"/><path fill="#FFF" mask="url(#b)" d="M148 70l13.637 10.303L169 85.867V100l-14.791-.715"/><path fill="#15003E" mask="url(#b)" d="M171 99h-28v-6.225h21.566V87.12l-19.424-14.146 3.87-4.974L171 84.014z"/><path fill="#25E899" mask="url(#b)" d="M178 24.5l-2.5 2.5-2.5-2.5 2.5-2.5zM166 12.5l-1.5 1.5-1.5-1.5 1.5-1.5zM178 2a2 2 0 1 0-4 0 2 2 0 0 0 4 0"/><path d="M132.5 51c-1.38 0-2.5-1.063-2.5-2.374V23.375c0-1.312 1.12-2.375 2.5-2.375s2.5 1.063 2.5 2.375v25.25c0 1.312-1.12 2.375-2.5 2.375" fill="#15003E" mask="url(#b)"/></g></svg>
